packages/design-assets/icons/16px/Hamburger.svg

<svg width="16" height="16" xmlns="http://www.w3.org/2000/svg"><path d="M15 7c.6 0 1 .4 1 1s-.4 1-1 1H1c-.6 0-1-.4-1-1s.4-1 1-1h14zm0-6c.6 0 1 .4 1 1s-.4 1-1 1H1c-.6 0-1-.4-1-1s.4-1 1-1h14zm0 12c.6 0 1 .4 1 1s-.4 1-1 1H1c-.6 0-1-.4-1-1s.4-1 1-1h14z" fill="#818F99" fill-rule="evenodd"/></svg>

<?xml version="1.0" encoding="UTF-8"?>
<svg width="16px" height="16px" viewBox="0 0 16 16" version="1.1" xmlns="http://www.w3.org/2000/svg" xmlns:xlink="http://www.w3.org/1999/xlink">
    <!-- Generator: Sketch 54.1 (76490) - https://sketchapp.com -->
    <title>Icons/16px/Hamburger</title>
    <desc>Created with Sketch.</desc>
    <g id="Icons/16px/Hamburger" stroke="none" stroke-width="1" fill="none" fill-rule="evenodd">
        <path d="M15,7 C15.6,7 16,7.4 16,8 C16,8.6 15.6,9 15,9 L1,9 C0.4,9 0,8.6 0,8 C0,7.4 0.4,7 1,7 L15,7 Z M15,1 C15.6,1 16,1.4 16,2 C16,2.6 15.6,3 15,3 L1,3 C0.4,3 0,2.6 0,2 C0,1.4 0.4,1 1,1 L15,1 Z M15,13 C15.6,13 16,13.4 16,14 C16,14.6 15.6,15 15,15 L1,15 C0.4,15 0,14.6 0,14 C0,13.4 0.4,13 1,13 L15,13 Z" id="i-16-hamburger" fill="#818F99"></path>
    </g>
</svg>
